icons/hiv_pos.svg

<svg width="48" height="48" viewBox="0 0 48 48" fill="none" xmlns="http://www.w3.org/2000/svg">
<path fill-rule="evenodd" clip-rule="evenodd" d="M26.9238 4C27.8914 4 28.7899 4.21665 29.5913 4.67461C30.276 5.06587 31.0533 5.60468 31.628 6.40924L31.6156 6.41805L31.6269 6.43315L33.9585 9.4554L34.7795 10.5501C36.1311 12.3352 36.7608 14.4943 36.6685 16.6278C36.2564 15.828 35.4953 15.2374 34.5864 15.0573C34.4014 13.8834 33.9339 12.7458 33.1839 11.7558L33.1809 11.752L32.709 11.1227C32.5351 12.0671 32.1354 12.9765 31.5099 13.7606L25.4437 21.5961L28.9964 26.087L30.6306 23.9774C30.7516 23.9923 30.8749 24 31 24C31 24.7189 31.2529 25.3788 31.6746 25.8955L30.2702 27.7084L37.2191 36.6521C37.8623 37.4799 37.7572 38.6639 36.9781 39.3654L32.9122 43.0268C32.0516 43.8018 30.7148 43.6861 30.0001 42.7749L24.2094 35.3917L18.3652 42.8431C17.6916 43.7019 16.4538 43.8621 15.5838 43.203L11.2054 39.886C10.3155 39.2119 10.1498 37.9398 10.8372 37.0603L18.1511 27.7016L13.6469 21.9878L13.641 21.98C11.109 18.6379 11.1085 13.9837 13.6394 10.641L13.641 10.639L14.4523 9.55709L16.7887 6.52844C16.8241 6.48089 16.8604 6.43373 16.8975 6.38697C18.0073 4.84975 19.8517 4 21.6762 4H26.9238ZM24.1743 19.9687L28.7743 14.027C28.1756 13.7018 27.496 13.5093 26.8334 13.5093H21.5857C20.8665 13.5093 20.1664 13.6875 19.574 14.0266L24.1743 19.9687ZM30.0099 12.4316C31.0686 11.0296 31.076 9.05023 30.0321 7.64012L29.932 7.5104L29.9466 7.49894C29.6182 7.07085 29.1501 6.726 28.5991 6.4111C28.1338 6.14525 27.5847 6 26.9238 6H21.6762C20.4332 6 19.2104 6.58966 18.5089 7.57171L18.4982 7.5867L18.3832 7.73584C17.8658 8.43472 17.6095 9.25167 17.6095 10.0667C17.6095 10.8772 17.8617 11.7461 18.3446 12.4333C19.3185 11.8098 20.4634 11.5093 21.5857 11.5093H26.8334C27.965 11.5093 29.0759 11.8619 30.0099 12.4316ZM19.4258 29.3185L12.4131 38.2918L16.7915 41.6088L22.9373 33.7729L19.4258 29.3185ZM16.9091 13.8515C16.2873 13.0717 15.8932 12.14 15.717 11.2043L15.2381 11.8429L15.2351 11.8467C13.2457 14.4728 13.2438 18.1368 15.2295 20.7648L24.9963 33.1543L31.5738 41.5406L35.6398 37.8792L28.2204 28.3299L23.4252 22.2681L16.9091 13.8515Z" fill="black"/>
<path d="M34 17C33.4477 17 33 17.4477 33 18V20H31C30.4477 20 30 20.4477 30 21C30 21.5523 30.4477 22 31 22H33V24C33 24.5523 33.4477 25 34 25C34.5523 25 35 24.5523 35 24V22H37C37.5523 22 38 21.5523 38 21C38 20.4477 37.5523 20 37 20H35V18C35 17.4477 34.5523 17 34 17Z" fill="black"/>
</svg>

<svg
  xmlns="http://www.w3.org/2000/svg"
  width="24"
  height="24"
  viewBox="0 0 24 24"
  fill="none"
  stroke="currentColor"
  stroke-width="2"
  stroke-linecap="round"
  stroke-linejoin="round"
>
  <path
    fill-rule="evenodd"
    d="M26.924 4c.967 0 1.866.217 2.667.675.685.39 1.462.93 2.037 1.734l-.012.01.01.014 2.332 3.022.822 1.095a9.4 9.4 0 0 1 1.889 6.078 3 3 0 0 0-2.083-1.57 7.36 7.36 0 0 0-1.402-3.302l-.003-.004-.472-.63a5.95 5.95 0 0 1-1.2 2.639l-6.065 7.835 3.552 4.491 1.635-2.11Q30.81 24 31 24c0 .719.253 1.379.675 1.895l-1.405 1.813 6.95 8.944a2 2 0 0 1-.242 2.713l-4.066 3.662A2 2 0 0 1 30 42.775l-5.79-7.383-5.845 7.451a2 2 0 0 1-2.781.36l-4.379-3.317a2 2 0 0 1-.368-2.826l7.314-9.358-4.504-5.714-.006-.008a9.414 9.414 0 0 1-.002-11.339l.002-.002.811-1.082 2.337-3.029.108-.141C18.008 4.85 19.853 4 21.678 4zm-2.75 15.969 4.6-5.942c-.598-.325-1.278-.518-1.94-.518h-5.248c-.72 0-1.42.178-2.012.518zm5.836-7.537a4.03 4.03 0 0 0 .022-4.792l-.1-.13.015-.011c-.329-.428-.797-.773-1.348-1.088C28.134 6.145 27.585 6 26.924 6h-5.248c-1.243 0-2.466.59-3.167 1.572l-.01.015-.116.149a3.9 3.9 0 0 0-.773 2.33c0 .811.252 1.68.735 2.367.974-.623 2.118-.924 3.24-.924h5.248c1.132 0 2.243.353 3.177.923M19.426 29.318l-7.013 8.974 4.378 3.317 6.146-7.836zm-2.517-15.467a6.06 6.06 0 0 1-1.192-2.647l-.479.639-.003.004a7.415 7.415 0 0 0-.005 8.918l9.766 12.39 6.578 8.386 4.066-3.662-7.42-9.55-4.795-6.06z"
    clip-rule="evenodd"
  />
  <path d="M34 17a1 1 0 0 0-1 1v2h-2a1 1 0 1 0 0 2h2v2a1 1 0 1 0 2 0v-2h2a1 1 0 1 0 0-2h-2v-2a1 1 0 0 0-1-1" />
</svg>
